X:452
T:Soup Dragon, The
R:jig
C:Gordon Duncan (1964-2005), Scotland
Z:hn-jig-452
M:6/8
L:1/8
K:Bm
fBB BAB | eff fed | ~e3 ede | fed ede |
fBB BAB | eff fed | ~e3 f2e | dBA B2e :|
|: faa afd | eff fed | ~e3 ede | fed ede |
[1 faa afd | eff fed | ~e3 f2e | dBA B2e :|
[2 fBB BAB | eff fed | ~e3 f2e | dBA B2e ||

